X:1
T:Title
%%score { ( 1 3 ) | ( 2 4 ) }
L:1/8
M:4/4
K:Ab
V:1 treble nm="Grand Piano"
V:3 treble 
V:2 bass 
V:4 bass 
V:1
 z4 z[Q:1/4=100] E F>G | A2 A2 [GB]2 A2 | c6 z2 | A2 [A,A]2 [DGB]2 [CA]2 | d6 z2 | [Ac]6 z2 | %6
 G2 z2 z4 | [CA]6 z2 | [=EG]6 z2 | F2 G2 A2 [FB]2 | c4 c4 | c8- |[M:3/4] c4 z2 |[M:1/4] C>C | %14
[M:4/4] F F2 G A2 F2 | c6 (3[Ac][Ac][Ac] | d3 [Fd] [FA]2 [FB]2 |[M:5/8] [=Ec]-[Ec]- [Ec]3 | %18
[M:3/8] (5:4:6c-c/8 z3/8 z3/4 c3/4c3/4 |[M:4/4] f6 z2 |[M:3/4] e4 z2 |[M:1/4] c2 | %22
[M:4/4] [GB]2 [AB][AB] [A=d]2 [Ac][AB] |[M:9/8] [Ge]3- [Ge] E2- EE/FG/ |[M:4/4] A6 z2 | d6 z2 | %26
 [Ae]2 [Ac]A [Ae]2 [EAc][CA] |[M:11/16] B/-B/-B/-B/-B-<B z/ z |] %28
V:2
 z4 z E, F,>G, | A,2 [C,A,]2 [E,D]2[K:treble] [A,C]2 | [A,EA]2[K:bass] [E,C]2 [A,,A,]E, F,>G, | %3
 A,2 C,2 E,2 A,2 | B,6 z2 | A,2 A,2 A,2 C,2 | E,2 E,2 E,2 E,2 | F,2 F,2 F,2 F,2 | %8
 C,2 C,2 C,2 [C,B,C]2 | [F,A,C]2 [=E,C]2 [F,DF]2 D,2 | C,2 B,2 A,2 F,2 | C,2 F,2 C,4- | %12
[M:3/4] C,4 z2 |[M:1/4] C,>C, |[M:4/4] F, F,2 G, A,2 F,2 | C6 (3[F,A,][F,A,][F,A,] | %16
 [D,A,]3 [D,A,] [D,A,]2 [D,F,]2 |[M:5/8] [C,G,]-[C,G,]- [C,G,]3 | %18
[M:3/8][K:treble] (5:4:6=E-E/8 z3/8 z3/4 F3/4G3/4 |[M:4/4] A6[K:bass] z2[K:treble] |[M:3/4] C6 | %21
[M:1/4] [A,EA]2 |[M:4/4][K:bass] [E,E]2 [F,=D][=D,B,] [B,,B,]2 [C,B,][D,B,] | %23
[M:9/8] [E,B,]3- [E,B,] [E,G,]2- [E,G,] z/ =D_D/ |[M:4/4] z2 (3A,A,A, A,2 (3z[K:treble] G_G | %25
 F6[K:bass] z2 | [C,A,]2 [E,A,][A,C] [E,C]2 E,E, |[M:11/16] z/ z/ z D-<DA,,3/2 |] %28
V:3
 x8 | x8 | z2 A2 EE F>G | x8 | G2 A2 B2 [EGB]2 | E2 E2 E2 [EA]2 | [DB]2- [D-GB-]2 [DGB]2 [B,DG]2 | %7
 A,2 A,2 A,2 [A,F]2 | C2 C2 B,2 =E2 | x8 | [=EG]2 [EG]2 F2 [FA]2 | [=EG]2 [FA]2 [EG]4- | %12
[M:3/4] [EG]4 z2 |[M:1/4] x2 |[M:4/4] x8 | x8 | x8 |[M:5/8] x5 |[M:3/8] z .c z | %19
[M:4/4] z2 (3DDD D2 (3BBB |[M:3/4] z2 (3AAA e2 |[M:1/4] x2 |[M:4/4] x8 |[M:9/8] x9 | %24
[M:4/4] z2 (3EEE E2 (3ABc | z2 (3A,A,A, A,2 [Af]2 | x8 |[M:11/16] [EG]-<[EG]E-<E[CEA]3/2 |] %28
V:4
 x8 | x6[K:treble] x2 | x2[K:bass] x6 | x8 | E,2 F,2 G,2 E,2 | x8 | x8 | x8 | x8 | x8 | x8 | x8 | %12
[M:3/4] x6 |[M:1/4] x2 |[M:4/4] x8 | x8 | x8 |[M:5/8] x5 |[M:3/8][K:treble] z .=E z | %19
[M:4/4] z2[K:bass] (3D,D,D, D,2 (3D[K:treble]DD |[M:3/4] z2 (3A,A,A, [A,A]2 |[M:1/4] x2 | %22
[M:4/4][K:bass] x8 |[M:9/8] x9 |[M:4/4] C6 z2[K:treble] | z2[K:bass] (3D,D,D, D,2 [D,A,]2 | x8 | %27
[M:11/16] E,/-E,/-E,/-E,/-E,-<E, z/ z |] %28

